assets/icons/standard/orders.svg

<?xml version="1.0"?><svg xmlns="http://www.w3.org/2000/svg" width="100" height="100" viewBox="0 0 100 100"><path fill="#fff" d="m78.8 62.1l-3.6-1.7c-0.5-0.3-1.2-0.3-1.7 0l-21.5 10.2c-1.2 0.6-2.7 0.6-3.9 0l-21.6-10.2c-0.5-0.3-1.2-0.3-1.7 0l-3.6 1.7c-1.6 0.8-1.6 2.9 0 3.7l26.8 12.7c1.2 0.6 2.7 0.6 3.9 0l26.8-12.7c1.7-0.8 1.7-3 0.1-3.7z m0-14l-3.7-1.7c-0.5-0.3-1.2-0.3-1.7 0l-21.4 10.2c-1.2 0.6-2.7 0.6-3.9 0l-21.5-10.2c-0.5-0.3-1.2-0.3-1.7 0l-3.7 1.7c-1.6 0.8-1.6 2.9 0 3.7l26.8 12.8c1.2 0.6 2.7 0.6 3.9 0l26.8-12.7c1.7-0.8 1.7-3 0.1-3.8z m-57.6-10.3l26.8 12.7c1.2 0.6 2.7 0.6 3.9 0l26.8-12.7c1.6-0.8 1.6-2.9 0-3.7l-26.8-12.7c-1.2-0.6-2.7-0.6-3.9 0l-26.8 12.8c-1.6 0.7-1.6 2.9 0 3.6z"></path></svg>

<svg xmlns="http://www.w3.org/2000/svg" x="0px" y="0px" width="100" height="100"
	 viewBox="0 0 100 100" style="enable-background:new 0 0 100 100;" xml:space="preserve">

<g>
	<g>
		<path fill="#FFFFFF" d="M78.8,62.1l-3.6-1.7c-0.5-0.3-1.2-0.3-1.7,0L52,70.6c-1.2,0.6-2.7,0.6-3.9,0L26.5,60.4
			c-0.5-0.3-1.2-0.3-1.7,0l-3.6,1.7c-1.6,0.8-1.6,2.9,0,3.7L48,78.5c1.2,0.6,2.7,0.6,3.9,0l26.8-12.7C80.4,65,80.4,62.8,78.8,62.1z"
			/>
	</g>
	<g>
		<path fill="#FFFFFF" d="M78.8,48.1l-3.7-1.7c-0.5-0.3-1.2-0.3-1.7,0L52,56.6c-1.2,0.6-2.7,0.6-3.9,0L26.6,46.4
			c-0.5-0.3-1.2-0.3-1.7,0l-3.7,1.7c-1.6,0.8-1.6,2.9,0,3.7L48,64.6c1.2,0.6,2.7,0.6,3.9,0l26.8-12.7C80.4,51.1,80.4,48.9,78.8,48.1
			z"/>
	</g>
	<g>
		<path fill="#FFFFFF" d="M21.2,37.8l26.8,12.7c1.2,0.6,2.7,0.6,3.9,0l26.8-12.7c1.6-0.8,1.6-2.9,0-3.7L51.9,21.4
			c-1.2-0.6-2.7-0.6-3.9,0L21.2,34.2C19.6,34.9,19.6,37.1,21.2,37.8z"/>
	</g>
</g>
</svg>
